!!!id: 17xx:2249
!!!COM: Anonim
!!!OTL: Missa a 3 – Agnus Dei
!!!PDT:
!!!SMS-siglum: PL-Kk
!!!SMS-shelfmark: Kk.I.59
!!!NIFC-rismID: 1001156799
!!!URL-scan: http://repozytorium.nifc.pl/skany/pl-kk-nut--i-59
!!!ONB-nifc: UWAGA: części Mszy: 1. Kyrie, 2. Et in terra, 3. Sanctus, 4. Benedictus, 5. Agnus Dei.
!!!SMS-variant:
!!!SMS-altvar:
**kern	**text	**kern	**text	**kern	**text
*part3	*part3	*part2	*part2	*part1	*part1
*staff3	*staff3	*staff2	*staff2	*staff1	*staff1
*I"Baſso	*	*I"Tenore Secondo	*	*I"Tenore Primo	*
*I'B	*	*I'T 2	*	*I'T 1	*
*clefF4	*	*clefC4	*	*clefC4	*
*ok[e-b-]	*	*	*	*	*
*k[b-e-]	*	*k[b-e-]	*	*k[b-e-]	*
*M2/1	*	*M2/1	*	*M2/1	*
*met(C|)	*	*met(C|)	*	*met(C|)	*
=1-	=1-	=1-	=1-	=1-	=1-
!	!	!	!	!LO:TX:t=P:problem:kreska pseudotaktowa:między nutą a kropką	!
2r	.	2r	.	1.d	A-
!LO:TX:t=P:problem:przekreślona synkopowana wartość	!	!LO:TX:t=P:problem:przekreślona synkopowana wartość	!	!	!
1G	A-	1B-	A-	.	.
*2\right	*	*	*	*2\right	*
!LO:TX:t=P:problem:kreska pseudotaktowa	!	!	!	!LO:TX:t=P:problem:kreska pseudotaktowa	!
2D\	-gnus	4A/	-gnus	2d\	-gnus
!	!	!LO:TX:t=P:problem:przekreślona synkopowana wartość	!	!	!
.	.	2A/	De-	.	.
=2-	=2-	=2-	=2-	=2-	=2-
(1E-X	De-	.	.	4c\	De-
.	.	4G/	.	4B-\	.
!	!	!LO:TX:t=P:problem:kreska pseudotaktowa:między nutą a kropką	!	!	!
.	.	2.G/	.	4B-\	.
.	.	.	.	8A/L	.
!	!	!	!	!LO:TX:t=P:problem:kreska pseudotaktowa	!
.	.	.	.	8G/J	.
!LO:TX:t=P:problem:kreska pseudotaktowa	!	!	!	!LO:TX:t=P:problem:kreska pseudotaktowa	!
1D)	.	.	.	1A	.
.	.	8F#X/L	.	.	.
!	!	!LO:SIC:v:s=8En/J	!	!	!
.	.	8E-/J	.	.	.
!	!	!LO:TX:t=P:problem:kreska pseudotaktowa	!	!	!
.	.	2F#/	.	.	.
=3-	=3-	=3-	=3-	=3-	=3-
!	!	!LO:TX:t=P:problem:kreska pseudotaktowa	!	!	!
2GG/	-i	1G	-i	2G/	-i
!LO:TX:t=P:problem:kreska pseudotaktowa	!	!	!	!LO:TX:t=P:problem:kreska pseudotaktowa	!
2G\	qui	.	.	2B-\	qui
2F\	tol-	2r	.	2.A/	tol-
*	*	*2\right	*	*	*
!	!	!LO:TX:t=P:problem:kreska pseudotaktowa	!	!	!
!LO:TX:t=P:problem:kreska pseudotaktowa	!	!	!	!	!
2D\	-lis	2d\	qui	.	.
!	!	!	!	!LO:TX:t=P:problem:kreska pseudotaktowa	!
.	.	.	.	4F/	-lis
=4-	=4-	=4-	=4-	=4-	=4-
4En\	pec-	2c\	tol-	4G/	pec-
2F\	-ca-	.	.	2A/	-ca-
.	.	4A\	-lis	.	.
!LO:TX:t=P:problem:kreska pseudotaktowa	!	!LO:TX:t=P:problem:kreska pseudotaktowa	!	!	!
4D\	-ta	4B-\	pec-	8G/L	.
!	!	!	!	!LO:TX:t=P:problem:kreska pseudotaktowa	!
.	.	.	.	8F/J	.
2C/	mun-	2c\	-ca-	4G/	.
.	.	.	.	4A/	-ta
!LO:TX:t=P:problem:kreska pseudotaktowa	!	!LO:TX:t=P:problem:kreska pseudotaktowa	!	!LO:TX:t=P:problem:przekreślona synkopowana wartość	!
2BB-/	-di	2d\	-ta	1B-\	mun-
=5-	=5-	=5-	=5-	=5-	=5-
2.F\	mi-	2c\	mun-	.	.
!	!	!LO:TX:t=P:problem:kreska pseudotaktowa	!	!LO:TX:t=P:problem:kreska pseudotaktowa	!
.	.	2c\	-di	2A/	-di
!LO:TX:t=P:problem:kreska pseudotaktowa	!	!	!	!	!
4F\	-se-	.	.	.	.
!LO:LB:g=original	!	!	!	!	!
2En\	-re-	2c\	mi-	2.G/	mi-
!LO:TX:t=P:problem:kreska pseudotaktowa	!	!LO:TX:t=P:problem:kreska pseudotaktowa	!	!	!
2G\	-re	2B-\	-se-	.	.
!	!	!	!	!LO:TX:t=P:problem:kreska pseudotaktowa	!
.	.	.	.	4G/	-se-
=6-	=6-	=6-	=6-	=6-	=6-
!LO:TX:t=P:problem:kreska pseudotaktowa	!	!LO:LB:g=original	!	!LO:LB:g=original	!
0D	no-	2A\	-re-	2F#X/	-re-
!	!	!LO:TX:t=P:problem:kreska pseudotaktowa	!	!	!
.	.	2B-\	-re	4G/	-re
!	!	!	!	!LO:TX:t=P:problem:przekreślona synkopowana wartość	!
.	.	.	.	2G/	no-
!	!	!LO:TX:t=P:problem:kreska pseudotaktowa	!	!	!
.	.	1A	no-	.	.
.	.	.	.	8F#X/L	.
.	.	.	.	8En/J	.
!	!	!	!	!LO:TX:t=P:problem:kreska pseudotaktowa	!
.	.	.	.	2F#/	.
=7-	=7-	=7-	=7-	=7-	=7-
!LO:TX:t=P:problem:kreska pseudotaktowa	!	!LO:TX:t=P:problem:kreska pseudotaktowa	!	!LO:TX:t=P:problem:kreska pseudotaktowa	!
1GG	-bis	1G	-bis	1G	-bis
!	!	!	!	!LO:TX:t=P:problem:kreska pseudotaktowa:między nutą a kropką	!
2r	.	2r	.	1.c	A-
!LO:TX:t=P:problem:przekreślona synkopowana wartość	!	!LO:TX:t=P:problem:przekreślona synkopowana wartość	!	!	!
1F\	A-	1A\	A-	.	.
=8-	=8-	=8-	=8-	=8-	=8-
.	.	.	.	.	.
!LO:TX:t=P:problem:kreska pseudotaktowa	!	!	!	!LO:TX:t=P:problem:kreska pseudotaktowa	!
2C/	-gnus	4G/	-gnus	2c\	-gnus
!	!	!LO:TX:t=P:problem:przekreślona synkopowana wartość	!	!	!
.	.	2G/	De-	.	.
(1D	De-	.	.	4B-\	De-
.	.	4Fny/	.	4A\	.
!	!	!LO:TX:t=P:problem:kreska pseudotaktowa:między nutą a kropką	!	!	!
.	.	2.F/	.	4A/	.
.	.	.	.	8G/L	.
!	!	!	!	!LO:TX:t=P:problem:kreska pseudotaktowa	!
.	.	.	.	8Fny/J	.
=9-	=9-	=9-	=9-	=9-	=9-
!LO:TX:t=P:problem:kreska pseudotaktowa	!	!	!	!LO:TX:t=P:problem:kreska pseudotaktowa	!
1C)	.	.	.	1G	.
.	.	8En/L	.	.	.
.	.	8D/J	.	.	.
!	!	!LO:TX:t=P:problem:kreska pseudotaktowa	!	!	!
.	.	2E/	.	.	.
!	!	!LO:TX:t=P:problem:kreska pseudotaktowa	!	!	!
2FF/	-i	1F	-i	2F/	-i
!LO:TX:t=P:problem:kreska pseudotaktowa	!	!	!	!LO:TX:t=P:problem:kreska pseudotaktowa	!
2F\	qui	.	.	2A\	qui
=10-	=10-	=10-	=10-	=10-	=10-
2E-X\	tol-	2r	.	2.G/	tol-
!LO:TX:t=P:problem:kreska pseudotaktowa	!	!LO:TX:t=P:problem:kreska pseudotaktowa	!	!	!
2C/	-lis	2c\	qui	.	.
!	!	!	!	!LO:TX:t=P:problem:kreska pseudotaktowa	!
.	.	.	.	4A/	-lis
4D\	pec-	2B-\	tol-	4F/	pec-
2E-X\	-ca-	.	.	2G/	-ca-
.	.	4G/	-lis	.	.
!LO:TX:t=P:problem:kreska pseudotaktowa	!	!LO:TX:t=P:problem:kreska pseudotaktowa	!	!	!
4C/	-ta	4A/	pec-	8F/L	.
!	!	!	!	!LO:TX:t=P:problem:kreska pseudotaktowa	!
.	.	.	.	8En/J	.
=11-	=11-	=11-	=11-	=11-	=11-
2BB-/	mun-	2B-\	-ca-	4F/	.
.	.	.	.	4G/	-ta
!LO:TX:t=P:problem:kreska pseudotaktowa	!	!LO:TX:t=P:problem:kreska pseudotaktowa	!	!LO:TX:t=P:problem:kreska pseudotaktowa	!
2F\	-di	2c\	-ta	2A/	mun-
!LO:LB:g=original	!	!LO:LB:g=original	!	!LO:LB:g=original	!
2.BB-/	mi-	2F/	mun-	2D/	-di
!	!	!LO:TX:t=P:problem:kreska pseudotaktowa	!	!LO:TX:t=P:problem:przekreślona synkopowana wartość	!
.	.	2F/	-di	1B-\	mi-
!LO:TX:t=P:problem:kreska pseudotaktowa	!	!	!	!	!
4C/	-se-	.	.	.	.
=12-	=12-	=12-	=12-	=12-	=12-
2D\	-re-	2.F/	mi-	.	.
!LO:TX:t=P:problem:kreska pseudotaktowa	!	!	!	!LO:TX:t=P:problem:kreska pseudotaktowa	!
2F\	-re	.	.	2A\	-se-
!	!	!LO:TX:t=P:problem:kreska pseudotaktowa	!	!	!
.	.	4F/	-se-	.	.
!LO:TX:t=P:problem:kreska pseudotaktowa	!	!	!	!	!
0C	no-	2En/	-re-	2G/	-re-
!	!	!	!	!LO:TX:t=P:problem:kreska pseudotaktowa	!
.	.	4F/	-re	2A/	-re
!	!	!LO:TX:t=P:problem:przekreślona synkopowana wartość	!	!	!
.	.	2F/	no-	.	.
=13-	=13-	=13-	=13-	=13-	=13-
!	!	!	!	!LO:TX:t=P:problem:kreska pseudotaktowa	!
.	.	.	.	1G	no-
.	.	8Eny/L	.	.	.
.	.	8D/J	.	.	.
!	!	!LO:TX:t=P:problem:kreska pseudotaktowa	!	!	!
.	.	2E/	.	.	.
!LO:TX:t=P:problem:kreska pseudotaktowa	!	!LO:TX:t=P:problem:kreska pseudotaktowa	!	!LO:TX:t=P:problem:kreska pseudotaktowa	!
1F	-bis	1F	-bis	1A	-bis
=14-	=14-	=14-	=14-	=14-	=14-
!	!	!	!	!LO:TX:t=P:problem:kreska pseudotaktowa:między nutą a kropką	!
2r	.	2r	.	1.d	A-
!LO:TX:t=P:problem:przekreślona synkopowana wartość	!	!LO:TX:t=P:problem:przekreślona synkopowana wartość	!	!	!
1G	A-	1B-	A-	.	.
!LO:TX:t=P:problem:kreska pseudotaktowa	!	!	!	!LO:TX:t=P:problem:kreska pseudotaktowa	!
2D\	-gnus	4A\	-gnus	2d\	-gnus
!	!	!LO:TX:t=P:problem:przekreślona synkopowana wartość	!	!	!
.	.	2A\	De-	.	.
=15-	=15-	=15-	=15-	=15-	=15-
(1E-X	De-	.	.	4c\	De-
.	.	4G/	-i-	4B-\	.
!	!	!LO:TX:t=P:problem:kreska pseudotaktowa:między nutą a kropką	!	!	!
.	.	2.G/	.	4B-\	.
.	.	.	.	8A\L	.
!	!	!	!	!LO:TX:t=P:problem:kreska pseudotaktowa	!
.	.	.	.	8G\J	.
!LO:TX:t=P:problem:kreska pseudotaktowa	!	!	!	!LO:TX:t=P:problem:kreska pseudotaktowa	!
1D)	.	.	.	1A	.
.	.	8F#X/L	.	.	.
.	.	8En/J	.	.	.
!	!	!LO:TX:t=P:problem:kreska pseudotaktowa	!	!	!
.	.	2F#/	.	.	.
=16-	=16-	=16-	=16-	=16-	=16-
!	!	!LO:TX:t=P:problem:kreska pseudotaktowa	!	!	!
2GG/	-i	1G	-i	2G/	-i
!LO:TX:t=P:problem:kreska pseudotaktowa	!	!	!	!LO:TX:t=P:problem:kreska pseudotaktowa	!
2G\	qui	.	.	2B-\	qui
2F\	tol-	2r	.	2.A/	tol-
!LO:TX:t=P:problem:kreska pseudotaktowa	!	!LO:TX:t=P:problem:kreska pseudotaktowa	!	!	!
2D\	-lis	2d\	qui	.	.
!	!	!	!	!LO:TX:t=P:problem:kreska pseudotaktowa	!
.	.	.	.	4F/	-lis
=17-	=17-	=17-	=17-	=17-	=17-
!	!	!LO:LB:g=original	!	!	!
4En\	pec-	2c\	tol-	4G/	pec-
2F\	-ca-	.	.	2A\	-ca-
.	.	4A\	-lis	.	.
!LO:TX:t=P:problem:kreska pseudotaktowa	!	!LO:TX:t=P:problem:kreska pseudotaktowa	!	!	!
4D\	-ta	4B-\	pec-	8G/L	.
!	!	!	!	!LO:TX:t=P:problem:kreska pseudotaktowa	!
.	.	.	.	8F/J	.
!LO:LB:g=original	!	!	!	!LO:LB:g=original	!
2C/	mun-	2c\	-ca-	4G/	.
.	.	.	.	4A/	-ta
!LO:TX:t=P:problem:kreska pseudotaktowa	!	!LO:TX:t=P:problem:kreska pseudotaktowa	!	!LO:TX:t=P:problem:przekreślona synkopowana wartość	!
2BB-/	-di	2d\	-ta	1B-\	mun-
=18-	=18-	=18-	=18-	=18-	=18-
2.F\	pec-	2c\	qui	.	.
!	!	!LO:TX:t=P:problem:kreska pseudotaktowa	!	!LO:TX:t=P:problem:kreska pseudotaktowa	!
.	.	2c\	tol-	2A\	-di
!LO:TX:t=P:problem:kreska pseudotaktowa	!	!	!	!	!
4F\	-ca-	.	.	.	.
!	!	!	!	!LO:SIC:v:l:s=tol-	!
2En\	-ta	2c\	-lis	2.G/	mi-
!LO:TX:t=P:problem:kreska pseudotaktowa	!	!LO:TX:t=P:problem:kreska pseudotaktowa	!	!	!
2G\	mun-	2B-\	pec-	.	.
!	!	!	!	!LO:TX:t=P:problem:kreska pseudotaktowa	!
!	!	!	!	!LO:SIC:v:l:s=-lis	!
.	.	.	.	4G/	-se
=19-	=19-	=19-	=19-	=19-	=19-
!LO:TX:t=P:problem:kreska pseudotaktowa	!	!	!	!	!
0D	.	2A\	-ca-	2F#X/	pec-
!	!	!LO:TX:t=P:problem:kreska pseudotaktowa	!	!	!
.	.	2B-\	-ta	4G/	-ca-
!	!	!	!	!LO:TX:t=P:problem:przekreślona synkopowana wartość	!
.	.	.	.	2G/	-ta
!	!	!LO:TX:t=P:problem:kreska pseudotaktowa	!	!	!
.	.	1A	mun-	.	.
.	.	.	.	8F#X/L	mun-
.	.	.	.	8En/J	.
!	!	!	!	!LO:TX:t=P:problem:kreska pseudotaktowa	!
.	.	.	.	2F#/	.
=20-	=20-	=20-	=20-	=20-	=20-
!LO:TX:b:i:t=Dona Nobis ut Kyrie al [fermata]	!	!LO:TX:a:i:t=Dona ut Kyrie al. [fermata]	!	!LO:TX:a:i:t=Dona ut Kyrie al [fermata]	!
!LO:N:vis=1	!	!LO:N:vis=1	!	!LO:N:vis=1	!
0GG	-di	0Bn	-di	0G	-di
=-	=-	=-	=-	=-	=-
*-	*-	*-	*-	*-	*-
!!!system-decoration: [(s1,s2,s3)]
!!!ENC: Katarzyna Serwa
!!!END: 2021-07-06
!!!ENC: Marta Chmielewska
!!!END: 2021-08-03
